4kyu.svg

<svg width="107" height="44" viewBox="0 0 107 44" fill="none" xmlns="http://www.w3.org/2000/svg">
<path d="M14.4141 2H92.5859L104 22L92.5859 42H14.4141L3 22L14.4141 2Z" fill="black" stroke="#286877" stroke-width="4"/>
<path d="M35.9688 24.2695H38.3359V26.0391H35.9688V30H33.7891V26.0391H26.0195V24.7617L33.6602 12.9375H35.9688V24.2695ZM28.4805 24.2695H33.7891V15.9023L33.5312 16.3711L28.4805 24.2695ZM50.0078 24.1289L48.6484 25.5469V30H46.4805V12H48.6484V22.8867L49.8086 21.4922L53.7578 17.3203H56.3945L51.4609 22.6172L56.9688 30H54.4258L50.0078 24.1289ZM62.7812 26.8242L65.7344 17.3203H68.0547L62.957 31.957C62.168 34.0664 60.9141 35.1211 59.1953 35.1211L58.7852 35.0859L57.9766 34.9336V33.1758L58.5625 33.2227C59.2969 33.2227 59.8672 33.0742 60.2734 32.7773C60.6875 32.4805 61.0273 31.9375 61.293 31.1484L61.7734 29.8594L57.25 17.3203H59.6172L62.7812 26.8242ZM77.8281 28.7461C76.9844 29.7383 75.7461 30.2344 74.1133 30.2344C72.7617 30.2344 71.7305 29.8438 71.0195 29.0625C70.3164 28.2734 69.9609 27.1094 69.9531 25.5703V17.3203H72.1211V25.5117C72.1211 27.4336 72.9023 28.3945 74.4648 28.3945C76.1211 28.3945 77.2227 27.7773 77.7695 26.543V17.3203H79.9375V30H77.875L77.8281 28.7461Z" fill="#286877"/>
</svg>

<svg width="107" height="44" fill="none" xmlns="http://www.w3.org/2000/svg"><path d="M14.414 2h78.172L104 22 92.586 42H14.414L3 22 14.414 2z" fill="#000" stroke="#286877" stroke-width="4"/><path d="M35.969 24.27h2.367v1.77h-2.367V30h-2.18v-3.96h-7.77v-1.278l7.641-11.825h2.309V24.27zm-7.489 0h5.31v-8.368l-.259.47-5.05 7.898zm21.528-.141l-1.36 1.418V30H46.48V12h2.168v10.887l1.16-1.395 3.95-4.172h2.636l-4.933 5.297L56.969 30h-2.543l-4.418-5.871zm12.773 2.695l2.953-9.504h2.32l-5.097 14.637c-.789 2.11-2.043 3.164-3.762 3.164l-.41-.035-.808-.152v-1.758l.586.047c.734 0 1.304-.149 1.71-.446.414-.297.754-.84 1.02-1.629l.48-1.289L57.25 17.32h2.367l3.164 9.504zm15.047 1.922c-.844.992-2.082 1.488-3.715 1.488-1.351 0-2.382-.39-3.094-1.172-.703-.789-1.058-1.953-1.066-3.492v-8.25h2.168v8.192c0 1.922.781 2.883 2.344 2.883 1.656 0 2.758-.618 3.304-1.852V17.32h2.168V30h-2.062l-.047-1.254z" fill="#286877"/></svg>
